dist/svgs/devui-icons/op/code.svg

<?xml version="1.0" encoding="UTF-8"?>
<svg width="16px" height="16px" viewBox="0 0 16 16" version="1.1" xmlns="http://www.w3.org/2000/svg" xmlns:xlink="http://www.w3.org/1999/xlink">
    <title>操作/code</title>
    <desc>Created with Sketch.</desc>
    <g id="操作/code" stroke="none" stroke-width="1" fill="none" fill-rule="evenodd">
        <path d="M5.12132034,10.2928932 L3.70710678,11.7071068 L0,8 L3.70710678,4.29289322 L5.12132034,5.70710678 L2.82842712,8 L5.12132034,10.2928932 Z M10.8786797,10.2928932 L13.1715729,8 L10.8786797,5.70710678 L12.2928932,4.29289322 L16,8 L12.2928932,11.7071068 L10.8786797,10.2928932 Z M8.01941932,2.80388386 L9.98058068,3.19611614 L7.98058068,13.1961161 L6.01941932,12.8038839 L8.01941932,2.80388386 Z" id="形状" fill="#293040" fill-rule="nonzero"></path>
    </g>
</svg>

<svg xmlns="http://www.w3.org/2000/svg" viewBox="0 0 16 16"><path d="M5.121 10.293l-1.414 1.414L0 8l3.707-3.707 1.414 1.414L2.828 8l2.293 2.293zm5.758 0L13.172 8l-2.293-2.293 1.414-1.414L16 8l-3.707 3.707-1.414-1.414zm-2.86-7.49l1.962.393-2 10-1.962-.392 2-10z"/></svg>
